;FLAVOR:Marlin
;TIME:4511
;Filament used: 0.654344m
;Layer height: 0.0875
;Generated with Cura_SteamEngine master
M190 S60
M104 S200
M109 S200
M82 ;absolute extrusion mode
G21;(metric values)
G90;(absolute positioning)
M82;(set extruder to absolute mode)
M107;(start with the fan off)
G28;(Home the printer)
G92 E0;(Reset the extruder to 0)
G0 Z5 E5 F500;(Move up and prime the nozzle)
G0 X-1 Z0;(Move outside the printable area)
G1 Y60 E8 F500;(Draw a priming/wiping line to the rear)
G1 X-1;(Move a little closer to the print area)
G1 Y10 E16 F500;(draw more priming/wiping)
G1 E15 F250;(Small retract)
G92 E0;(Zero the extruder)
G92 E0
G1 F2400 E-4
;LAYER_COUNT:87
;LAYER:0
M107 P0
M205 X30 Y30
G0 F1800 X44.772 Y44.528 Z0.262
M205 X20 Y20
;TYPE:SKIRT
G1 F2400 E0
G1 F900 X45.236 Y44.092 E0.02427
G1 X45.751 Y43.717 E0.04856
G1 X46.308 Y43.41 E0.07281
G1 X46.9 Y43.175 E0.09709
G1 X47.517 Y43.016 E0.12138
G1 X48.149 Y42.935 E0.14567
G1 X48.473 Y42.925 E0.15803
G1 X63.438 Y42.925 E0.72857
G1 X64.012 Y42.961 E0.75049
G1 X64.223 Y42.934 E0.7586
G1 X64.547 Y42.924 E0.77096
G1 X79.54 Y42.924 E1.34256
G1 X80.176 Y42.964 E1.36685
G1 X80.801 Y43.083 E1.39111
G1 X81.407 Y43.28 E1.4154
G1 X81.983 Y43.551 E1.43967
G1 X82.521 Y43.892 E1.46396
G1 X83.012 Y44.298 E1.48825
G1 X83.448 Y44.762 E1.51252
G1 X83.823 Y45.277 E1.53681
G1 X84.13 Y45.834 E1.56105
G1 X84.365 Y46.426 E1.58534
G1 X84.524 Y47.043 E1.60963
G1 X84.605 Y47.675 E1.63392
G1 X84.615 Y47.999 E1.64628
G1 X84.615 Y49.999 E1.72253
G1 X84.575 Y50.635 E1.74682
G1 X84.456 Y51.26 E1.77108
G1 X84.259 Y51.866 E1.79537
G1 X83.988 Y52.442 E1.81964
G1 X83.647 Y52.98 E1.84392
G1 X83.241 Y53.471 E1.86821
G1 X82.777 Y53.907 E1.89249
G1 X82.593 Y54.041 E1.90117
G1 X82.527 Y54.162 E1.90642
G1 X82.373 Y54.363 E1.91607
G1 X82.203 Y54.812 E1.93438
G1 X82.07 Y55.063 E1.94521
G1 X82.053 Y55.422 E1.95891
G1 X81.997 Y55.92 E1.97802
G1 X81.835 Y56.741 E2.00992
G1 X81.504 Y57.905 E2.05606
G1 X81.292 Y58.506 E2.08035
G1 X81.199 Y58.69 E2.08821
G1 X81.145 Y58.979 E2.09942
G1 X81.203 Y59.367 E2.11438
G1 X81.444 Y59.717 E2.13058
G1 X82.017 Y60.716 E2.17448
G1 X82.173 Y60.852 E2.18237
G1 X82.597 Y61.328 E2.20668
G1 X82.958 Y61.853 E2.23097
G1 X83.25 Y62.418 E2.25522
G1 X83.469 Y63.016 E2.27949
G1 X83.579 Y63.459 E2.2969
G1 X83.682 Y63.971 E2.31681
G1 X83.769 Y64.602 E2.34109
G1 X83.75 Y65.544 E2.37701
G1 X83.674 Y66.214 E2.40272
G1 X83.562 Y66.841 E2.427
G1 X83.367 Y67.466 E2.45196
G1 X83.176 Y67.962 E2.47223
G1 X82.91 Y68.541 E2.49652
G1 X82.629 Y69.003 E2.51713
G1 X82.311 Y69.468 E2.53861
G1 X81.919 Y69.97 E2.56289
G1 X81.503 Y70.388 E2.58537
G1 X81.026 Y70.814 E2.60976
G1 X80.525 Y71.208 E2.63406
G1 X79.857 Y71.597 E2.66353
G1 X79.651 Y71.697 E2.67226
G1 X79.5 Y72.153 E2.69057
G1 X79.262 Y72.744 E2.71486
G1 X78.895 Y73.39 E2.74319
G1 X78.417 Y74.102 E2.77588
G1 X78.029 Y74.607 E2.80016
G1 X77.455 Y75.169 E2.83078
G1 X76.911 Y75.623 E2.8578
G1 X76.397 Y76 E2.8821
G1 X75.84 Y76.309 E2.90638
G1 X75.404 Y76.492 E2.92441
G1 X74.918 Y76.67 E2.94414
G1 X74.308 Y76.852 E2.96841
G1 X73.579 Y76.964 E2.99653
G1 X72.384 Y77.06 E3.04224
G1 X71.473 Y77.051 E3.07697
G1 X70.793 Y76.983 E3.10302
G1 X69.864 Y76.801 E3.13911
G1 X69.097 Y76.575 E3.1696
G1 X68.498 Y76.357 E3.1939
G1 X67.932 Y76.066 E3.21816
G1 X67.583 Y75.838 E3.23406
G1 X67.059 Y75.464 E3.2586
G1 X66.565 Y75.062 E3.28288
G1 X66.125 Y74.601 E3.30718
G1 X65.849 Y74.243 E3.32441
G1 X65.504 Y73.75 E3.34735
G1 X65.172 Y73.206 E3.37165
G1 X64.911 Y72.625 E3.39593
G1 X64.687 Y71.841 E3.42702
G1 X64.676 Y71.787 E3.42912
G1 X64.618 Y71.675 E3.43393
G1 X64.45 Y71.216 E3.45256
G1 X64.266 Y71.081 E3.46126
G1 X64.181 Y71.01 E3.46548
G1 X63.863 Y71.273 E3.48122
G1 X63.617 Y71.453 E3.49284
G1 X63.501 Y71.8 E3.50679
G1 X63.226 Y72.375 E3.53109
G1 X63.002 Y72.724 E3.5469
G1 X62.805 Y73.196 E3.5664
G1 X62.487 Y73.75 E3.59075
G1 X62.277 Y74.068 E3.60528
G1 X61.893 Y74.576 E3.62956
G1 X61.449 Y75.032 E3.65382
G1 X61.106 Y75.317 E3.67082
G1 X60.624 Y75.682 E3.69387
G1 X60.093 Y76.034 E3.71816
G1 X59.522 Y76.316 E3.74244
G1 X59.186 Y76.443 E3.75613
G1 X58.577 Y76.649 E3.78064
G1 X57.684 Y76.864 E3.81566
G1 X56.656 Y77.014 E3.85527
G1 X56.021 Y77.066 E3.87956
G1 X55.359 Y77.036 E3.90482
G1 X54.106 Y76.896 E3.95289
G1 X53.479 Y76.785 E3.97717
G1 X52.871 Y76.597 E4.00143
G1 X52.455 Y76.418 E4.01869
G1 X51.989 Y76.192 E4.03844
G1 X51.435 Y75.879 E4.0627
G1 X50.737 Y75.332 E4.09651
G1 X50.35 Y74.97 E4.11671
G1 X49.913 Y74.507 E4.14098
G1 X49.658 Y74.172 E4.15703
G1 X49.114 Y73.394 E4.19322
G1 X48.782 Y72.85 E4.21752
G1 X48.617 Y72.505 E4.2321
G1 X48.349 Y71.887 E4.25778
G1 X48.248 Y71.607 E4.26913
G1 X47.671 Y71.259 E4.29482
G1 X47.026 Y70.791 E4.3252
G1 X46.535 Y70.385 E4.34949
G1 X45.943 Y69.724 E4.38332
G1 X45.571 Y69.227 E4.40699
G1 X45.222 Y68.694 E4.43128
G1 X44.976 Y68.2 E4.45232
G1 X44.791 Y67.772 E4.47009
G1 X44.575 Y67.172 E4.4944
G1 X44.427 Y66.488 E4.52108
G1 X44.312 Y65.697 E4.55156
G1 X44.26 Y65.062 E4.57585
G1 X44.288 Y64.426 E4.60012
G1 X44.398 Y63.789 E4.62476
G1 X44.54 Y63.194 E4.64808
G1 X44.726 Y62.585 E4.67236
G1 X44.987 Y62.004 E4.69664
G1 X45.319 Y61.461 E4.72091
G1 X45.717 Y60.963 E4.74521
G1 X46.173 Y60.519 E4.76948
G1 X46.682 Y60.136 E4.79376
G1 X46.738 Y60.104 E4.79622
G1 X46.772 Y59.582 E4.81616
G1 X46.799 Y59.373 E4.8242
G1 X46.722 Y59.053 E4.83675
G1 X46.65 Y58.702 E4.85041
G1 X46.525 Y57.955 E4.87928
G1 X46.321 Y57.453 E4.89994
G1 X46.119 Y56.85 E4.92419
G1 X45.976 Y56.083 E4.95393
G1 X45.937 Y55.721 E4.96781
G1 X45.822 Y55.551 E4.97564
G1 X45.576 Y55.078 E4.99596
G1 X45.417 Y54.729 E5.01058
G1 X45.19 Y54.134 E5.03486
G1 X45.111 Y53.792 E5.04824
G1 X45.001 Y53.701 E5.05369
G1 X44.565 Y53.237 E5.07796
G1 X44.19 Y52.722 E5.10225
G1 X43.883 Y52.165 E5.1265
G1 X43.648 Y51.573 E5.15078
G1 X43.489 Y50.956 E5.17507
G1 X43.408 Y50.324 E5.19936
G1 X43.398 Y50 E5.21172
G1 X43.398 Y48 E5.28797
G1 X43.438 Y47.364 E5.31226
G1 X43.557 Y46.739 E5.33652
G1 X43.754 Y46.133 E5.36081
G1 X44.025 Y45.557 E5.38508
G1 X44.366 Y45.019 E5.40937
G1 X44.772 Y44.528 E5.43366
M205 X30 Y30
G0 F1800 X45.117 Y44.674
M205 X20 Y20
G1 F900 X45.577 Y44.267 E5.45707
G1 X46.086 Y43.922 E5.48051
G1 X46.635 Y43.647 E5.50392
G1 X47.216 Y43.445 E5.52737
G1 X47.817 Y43.321 E5.55077
G1 X48.473 Y43.275 E5.57584
G1 X63.438 Y43.275 E6.14637
G1 X64.005 Y43.312 E6.16804
G1 X64.547 Y43.274 E6.18875
G1 X79.54 Y43.274 E6.76035
G1 X80.153 Y43.314 E6.78377
G1 X80.756 Y43.433 E6.8072
G1 X81.338 Y43.63 E6.83063
G1 X81.89 Y43.9 E6.85405
G1 X82.402 Y44.24 E6.87749
G1 X82.866 Y44.643 E6.90092
G1 X83.273 Y45.103 E6.92433
G1 X83.618 Y45.612 E6.94778
G1 X83.893 Y46.161 E6.97118
G1 X84.095 Y46.742 E6.99464
G1 X84.219 Y47.343 E7.01803
G1 X84.265 Y47.999 E7.0431
G1 X84.265 Y49.999 E7.11935
G1 X84.225 Y50.612 E7.14277
G1 X84.106 Y51.215 E7.1662
G1 X83.909 Y51.797 E7.18963
G1 X83.639 Y52.349 E7.21306
G1 X83.299 Y52.861 E7.23649
G1 X82.896 Y53.325 E7.25992
G1 X82.436 Y53.732 E7.28333
G1 X82.319 Y53.811 E7.28872
G1 X82.219 Y53.995 E7.2967
G1 X82.061 Y54.2 E7.30657
G1 X81.876 Y54.688 E7.32646
G1 X81.728 Y54.963 E7.33837
G1 X81.705 Y55.383 E7.35441
G1 X81.649 Y55.881 E7.37351
G1 X81.499 Y56.645 E7.4032
G1 X81.168 Y57.809 E7.44933
G1 X80.962 Y58.388 E7.47276
G1 X80.864 Y58.579 E7.48095
G1 X80.789 Y58.979 E7.49646
G1 X80.799 Y59.012 E7.49778
G1 X80.869 Y59.495 E7.51638
G1 X81.14 Y59.891 E7.53468
G1 X81.742 Y60.941 E7.58082
G1 X81.988 Y61.162 E7.59343
G1 X82.387 Y61.629 E7.61684
G1 X82.723 Y62.144 E7.64029
G1 X82.988 Y62.698 E7.6637
G1 X83.236 Y63.528 E7.69673
G1 X83.339 Y64.04 E7.71664
G1 X83.421 Y64.649 E7.74006
G1 X83.402 Y65.505 E7.77271
G1 X83.326 Y66.175 E7.79841
G1 X83.217 Y66.779 E7.82181
G1 X83.04 Y67.34 E7.84424
G1 X82.849 Y67.836 E7.8645
G1 X82.592 Y68.394 E7.88792
G1 X82.34 Y68.805 E7.9063
G1 X82.022 Y69.27 E7.92778
G1 X81.643 Y69.754 E7.95122
G1 X81.269 Y70.127 E7.97136
G1 X80.792 Y70.553 E7.99574
G1 X80.308 Y70.932 E8.01917
G1 X79.704 Y71.282 E8.04579
G1 X79.364 Y71.447 E8.0602
G1 X79.167 Y72.043 E8.08413
G1 X78.937 Y72.613 E8.10756
G1 X78.604 Y73.195 E8.13312
G1 X78.126 Y73.907 E8.16582
G1 X77.751 Y74.393 E8.18922
G1 X77.23 Y74.901 E8.21696
G1 X76.686 Y75.355 E8.24398
G1 X76.19 Y75.717 E8.26739
G1 X75.651 Y76.012 E8.29081
G1 X75.284 Y76.164 E8.30596
G1 X74.798 Y76.342 E8.32569
G1 X74.208 Y76.515 E8.34913
G1 X73.551 Y76.615 E8.37447
G1 X72.356 Y76.711 E8.42017
G1 X71.508 Y76.703 E8.4525
G1 X70.828 Y76.635 E8.47856
G1 X69.963 Y76.465 E8.51216
G1 X69.196 Y76.239 E8.54265
G1 X68.619 Y76.028 E8.56607
G1 X68.074 Y75.743 E8.58952
G1 X67.786 Y75.553 E8.60267
G1 X67.262 Y75.179 E8.62722
G1 X66.786 Y74.79 E8.65065
G1 X66.365 Y74.343 E8.67406
G1 X66.136 Y74.042 E8.68848
G1 X65.791 Y73.549 E8.71142
G1 X65.472 Y73.024 E8.73484
G1 X65.224 Y72.462 E8.75826
G1 X65.03 Y71.772 E8.78559
G1 X65.009 Y71.669 E8.7896
G1 X64.93 Y71.515 E8.79619
G1 X64.744 Y70.998 E8.81714
G1 X64.473 Y70.799 E8.82996
G1 X64.173 Y70.547 E8.8449
G1 X64.098 Y70.627 E8.84908
G1 X63.657 Y70.991 E8.87088
G1 X63.319 Y71.237 E8.88681
G1 X63.168 Y71.689 E8.90498
G1 X62.9 Y72.242 E8.92841
G1 X62.697 Y72.549 E8.94244
G1 X62.471 Y73.08 E8.96444
G1 X62.195 Y73.557 E8.98545
G1 X61.985 Y73.875 E8.99998
G1 X61.614 Y74.364 E9.02338
G1 X61.182 Y74.802 E9.04684
G1 X60.894 Y75.038 E9.06103
G1 X60.412 Y75.403 E9.08408
G1 X59.9 Y75.741 E9.10747
G1 X59.074 Y76.112 E9.14199
G1 X58.465 Y76.318 E9.1665
G1 X57.633 Y76.517 E9.19912
G1 X56.605 Y76.667 E9.23873
G1 X55.993 Y76.716 E9.26213
G1 X55.398 Y76.688 E9.28484
G1 X54.145 Y76.548 E9.33291
G1 X53.54 Y76.44 E9.35634
G1 X52.955 Y76.255 E9.37973
G1 X52.608 Y76.103 E9.39417
G1 X52.142 Y75.877 E9.41392
G1 X51.608 Y75.574 E9.43733
G1 X50.976 Y75.077 E9.46798
G1 X50.589 Y74.715 E9.48818
G1 X50.169 Y74.267 E9.51159
G1 X49.945 Y73.972 E9.52571
G1 X49.401 Y73.194 E9.56191
G1 X49.082 Y72.668 E9.58536
G1 X48.938 Y72.366 E9.59812
G1 X48.67 Y71.748 E9.6238
G1 X48.537 Y71.376 E9.63886
G1 X47.876 Y70.975 E9.66833
G1 X47.231 Y70.507 E9.69871
G1 X46.758 Y70.115 E9.72213
G1 X46.223 Y69.514 E9.75281
G1 X45.851 Y69.017 E9.77648
G1 X45.516 Y68.502 E9.7999
G1 X45.297 Y68.061 E9.81867
G1 X45.112 Y67.633 E9.83645
G1 X44.905 Y67.054 E9.85989
G1 X44.773 Y66.438 E9.88391
G1 X44.658 Y65.647 E9.91438
G1 X44.609 Y65.034 E9.93783
G1 X44.641 Y64.421 E9.96123
G1 X44.738 Y63.87 E9.98256
G1 X44.88 Y63.275 E10.00588
G1 X45.061 Y62.688 E10.0293
G1 X45.317 Y62.129 E10.05274
G1 X45.643 Y61.609 E10.07614
G1 X46.034 Y61.135 E10.09956
G1 X46.484 Y60.715 E10.12303
G1 X46.984 Y60.358 E10.14645
G1 X47.075 Y60.309 E10.15039
G1 X47.121 Y59.605 E10.17729
G1 X47.154 Y59.354 E10.18694
G1 X47.062 Y58.971 E10.20196
G1 X46.995 Y58.644 E10.21468
G1 X46.864 Y57.861 E10.24495
G1 X46.645 Y57.322 E10.26713
G1 X46.451 Y56.739 E10.29056
G1 X46.324 Y56.045 E10.31745
G1 X46.276 Y55.601 E10.33448
G1 X46.049 Y55.242 E10.35067
G1 X45.894 Y54.933 E10.36385
G1 X45.735 Y54.584 E10.37847
G1 X45.517 Y54.009 E10.40192
G1 X45.423 Y53.595 E10.4181
G1 X45.147 Y53.356 E10.43202
G1 X44.74 Y52.896 E10.45544
G1 X44.395 Y52.387 E10.47888
G1 X44.12 Y51.838 E10.50229
G1 X43.918 Y51.257 E10.52574
G1 X43.794 Y50.656 E10.54914
G1 X43.748 Y50 E10.57421
G1 X43.748 Y48 E10.65046
G1 X43.788 Y47.387 E10.67388
G1 X43.907 Y46.784 E10.69731
G1 X44.104 Y46.202 E10.72073
G1 X44.374 Y45.65 E10.74416
G1 X44.714 Y45.138 E10.76759
G1 X45.117 Y44.674 E10.79102
M205 X30 Y30
G0 F1800 X45.461 Y44.827
M205 X20 Y20
G1 F900 X45.917 Y44.45 E10.81358
G1 X46.419 Y44.137 E10.83613
G1 X46.958 Y43.896 E10.85864
G1 X47.526 Y43.729 E10.88122
G1 X48.11 Y43.64 E10.90374
G1 X48.473 Y43.625 E10.91759
G1 X63.438 Y43.625 E11.48812
G1 X64.018 Y43.664 E11.51028
G1 X64.184 Y43.639 E11.51668
G1 X64.547 Y43.624 E11.53053
G1 X79.54 Y43.624 E12.10213
G1 X80.13 Y43.664 E12.12468
G1 X80.709 Y43.783 E12.14721
G1 X81.267 Y43.979 E12.16976
G1 X81.793 Y44.249 E12.1923
G1 X82.278 Y44.587 E12.21484
G1 X82.713 Y44.987 E12.23737
G1 X83.09 Y45.443 E12.25993
G1 X83.403 Y45.945 E12.28248
G1 X83.644 Y46.484 E12.30499
G1 X83.811 Y47.052 E12.32756
G1 X83.9 Y47.636 E12.35008
G1 X83.915 Y47.999 E12.36393
G1 X83.915 Y49.999 E12.44018
G1 X83.875 Y50.589 E12.46273
G1 X83.756 Y51.168 E12.48526
G1 X83.56 Y51.726 E12.50781
G1 X83.29 Y52.252 E12.53035
G1 X82.952 Y52.737 E12.55289
G1 X82.552 Y53.172 E12.57542
G1 X82.096 Y53.549 E12.59798
G1 X82.046 Y53.58 E12.60022
G1 X81.911 Y53.826 E12.61092
G1 X81.752 Y54.032 E12.62084
G1 X81.548 Y54.563 E12.64252
G1 X81.384 Y54.862 E12.65553
G1 X81.385 Y54.876 E12.65606
G1 X81.358 Y55.344 E12.67393
G1 X81.302 Y55.842 E12.69304
G1 X81.162 Y56.55 E12.72055
G1 X80.831 Y57.714 E12.76669
G1 X80.631 Y58.27 E12.78922
G1 X80.53 Y58.465 E12.79759
G1 X80.43 Y58.997 E12.81823
G1 X80.462 Y59.109 E12.82267
G1 X80.535 Y59.623 E12.84246
G1 X80.836 Y60.065 E12.86285
G1 X81.462 Y61.157 E12.91083
G1 X81.799 Y61.471 E12.92839
G1 X82.173 Y61.929 E12.95094
G1 X82.482 Y62.434 E12.97351
G1 X82.719 Y62.975 E12.99603
G1 X82.893 Y63.597 E13.02065
G1 X82.996 Y64.109 E13.04056
G1 X83.073 Y64.695 E13.06309
G1 X83.054 Y65.465 E13.09246
G1 X82.978 Y66.135 E13.11817
G1 X82.872 Y66.717 E13.14072
G1 X82.714 Y67.214 E13.1606
G1 X82.523 Y67.71 E13.18086
G1 X82.273 Y68.246 E13.20341
G1 X82.051 Y68.608 E13.2196
G1 X81.733 Y69.073 E13.24108
G1 X81.367 Y69.537 E13.26361
G1 X81.036 Y69.866 E13.2814
G1 X80.559 Y70.292 E13.30578
G1 X80.093 Y70.655 E13.3283
G1 X79.552 Y70.967 E13.35211
G1 X79.079 Y71.196 E13.37215
G1 X78.835 Y71.934 E13.40178
G1 X78.612 Y72.481 E13.4243
G1 X78.313 Y73 E13.44714
G1 X77.835 Y73.712 E13.47983
G1 X77.473 Y74.179 E13.50236
G1 X77.006 Y74.632 E13.52716
G1 X76.462 Y75.086 E13.55418
G1 X75.984 Y75.433 E13.5767
G1 X75.463 Y75.713 E13.59925
G1 X75.164 Y75.835 E13.61156
G1 X74.678 Y76.013 E13.63129
G1 X74.11 Y76.178 E13.65384
G1 X73.523 Y76.266 E13.67647
G1 X72.328 Y76.362 E13.72217
G1 X71.543 Y76.354 E13.7521
G1 X70.863 Y76.286 E13.77816
G1 X70.061 Y76.13 E13.80931
G1 X69.294 Y75.904 E13.83979
G1 X68.74 Y75.699 E13.86231
G1 X67.989 Y75.268 E13.89532
G1 X67.465 Y74.894 E13.91987
G1 X67.008 Y74.519 E13.9424
G1 X66.606 Y74.085 E13.96496
G1 X66.423 Y73.841 E13.97658
G1 X66.078 Y73.348 E13.99953
G1 X65.772 Y72.842 E14.02207
G1 X65.538 Y72.299 E14.04461
G1 X65.373 Y71.703 E14.06819
G1 X65.343 Y71.552 E14.07406
G1 X65.242 Y71.355 E14.0825
G1 X65.046 Y70.797 E14.10505
G1 X65.043 Y70.784 E14.10555
G1 X64.68 Y70.517 E14.12273
G1 X64.228 Y70.136 E14.14527
G1 X64.157 Y70.053 E14.14944
G1 X63.842 Y70.386 E14.16691
G1 X63.451 Y70.708 E14.18622
G1 X63.024 Y71.019 E14.20636
G1 X62.836 Y71.578 E14.22885
G1 X62.573 Y72.107 E14.25137
G1 X62.383 Y72.388 E14.2643
G1 X62.374 Y72.419 E14.26553
G1 X62.139 Y72.962 E14.28809
G1 X61.903 Y73.364 E14.30586
G1 X61.693 Y73.682 E14.32039
G1 X61.334 Y74.152 E14.34294
G1 X60.916 Y74.57 E14.36547
G1 X60.683 Y74.759 E14.37691
G1 X60.201 Y75.124 E14.39996
G1 X59.707 Y75.448 E14.42248
G1 X58.962 Y75.78 E14.45358
G1 X58.353 Y75.986 E14.47809
G1 X57.583 Y76.171 E14.50828
G1 X56.555 Y76.321 E14.54789
G1 X55.965 Y76.367 E14.57045
G1 X55.437 Y76.34 E14.59061
G1 X54.184 Y76.2 E14.63867
G1 X53.602 Y76.095 E14.66122
G1 X53.04 Y75.912 E14.68375
G1 X52.761 Y75.788 E14.69539
G1 X52.295 Y75.562 E14.71514
G1 X51.782 Y75.269 E14.73766
G1 X51.215 Y74.821 E14.76521
G1 X50.828 Y74.459 E14.78541
G1 X50.425 Y74.027 E14.80794
G1 X50.232 Y73.771 E14.82016
G1 X49.688 Y72.993 E14.85635
G1 X49.259 Y72.227 E14.88982
G1 X48.991 Y71.609 E14.9155
G1 X48.835 Y71.122 E14.935
G1 X48.678 Y71.056 E14.94149
G1 X48.082 Y70.692 E14.96812
G1 X47.437 Y70.224 E14.9985
G1 X46.983 Y69.845 E15.02105
G1 X46.503 Y69.305 E15.04859
G1 X46.131 Y68.808 E15.07226
G1 X45.81 Y68.311 E15.09481
G1 X45.618 Y67.922 E15.11135
G1 X45.433 Y67.494 E15.12913
G1 X45.236 Y66.936 E15.15169
G1 X45.12 Y66.387 E15.17308
G1 X45.005 Y65.596 E15.20356
G1 X44.959 Y65.007 E15.22608
G1 X44.994 Y64.417 E15.24861
G1 X45.079 Y63.951 E15.26667
G1 X45.221 Y63.356 E15.28999
G1 X45.396 Y62.792 E15.31251
G1 X45.647 Y62.256 E15.33507
G1 X45.967 Y61.759 E15.35761
G1 X46.351 Y61.31 E15.38013
G1 X46.793 Y60.917 E15.40268
G1 X47.283 Y60.586 E15.42522
G1 X47.348 Y60.554 E15.42798
